www/assets/icons/add_home.svg

<svg xmlns="http://www.w3.org/2000/svg" width="24" height="24" viewBox="0 0 24 24" fill='currentColor'><path d="M16.5 10c.7 0 1.37.1 2 .29V8l-8-6-8 6v12h7.68a6.995 6.995 0 0 1 6.32-10"/><path d="M16.5 12c-2.76 0-5 2.24-5 5s2.24 5 5 5 5-2.24 5-5-2.24-5-5-5m3 5.5H17V20h-1v-2.5h-2.5v-1H16V14h1v2.5h2.5z"/></svg>

<svg width="24" height="24" viewBox="0 0 24 24" xmlns="http://www.w3.org/2000/svg" fill='currentColor'><path d="M16.5 10C17.2 10 17.87 10.1 18.5 10.29V8L10.5 2L2.5 8V20H10.18C9.75 19.09 9.5 18.08 9.5 17C9.5 13.13 12.63 10 16.5 10Z"/><path d="M16.5 12C13.74 12 11.5 14.24 11.5 17C11.5 19.76 13.74 22 16.5 22C19.26 22 21.5 19.76 21.5 17C21.5 14.24 19.26 12 16.5 12ZM19.5 17.5H17V20H16V17.5H13.5V16.5H16V14H17V16.5H19.5V17.5Z"/></svg>
